X:20
T:Last Night's Fun
R:Reel
M:C|
L:1/8
K:D
dB |: "D" AD (3(FED) ADBD | "D" ADFD  "A" EFGB | "D" AD ~D2 A2 (3(Bcd) | "G" egfe       "A" dBBd :|
      "D" df ~f2   af ~f2 | "D" defd  "A" edef | "D" df ~f2     af ~f2 | "A" (3(efg) fe "G" dBAB |
      "D" df ~f2   af ~f2 | "D" defd "A" e2 fg | "D" afbf         afeg | "A" ~f2 ed     "G" BcdB |]
